app/img/youtube.svg

<svg width="24" height="24" viewBox="0 0 24 24" fill="none" xmlns="http://www.w3.org/2000/svg">
<path fill-rule="evenodd" clip-rule="evenodd" d="M21.3903 4.11407C22.4182 4.39093 23.2288 5.20135 23.5055 6.22948C24.0197 8.1074 23.9999 12.0218 23.9999 12.0218C23.9999 12.0218 23.9999 15.9163 23.5057 17.7944C23.2288 18.8223 22.4184 19.6329 21.3903 19.9096C19.5122 20.404 12 20.404 12 20.404C12 20.404 4.50731 20.404 2.60961 19.89C1.58148 19.6131 0.771054 18.8025 0.4942 17.7746C0 15.9163 0 12.002 0 12.002C0 12.002 0 8.1074 0.4942 6.22948C0.770871 5.20153 1.60125 4.37115 2.60943 4.09448C4.48753 3.6001 11.9998 3.6001 11.9998 3.6001C11.9998 3.6001 19.5122 3.6001 21.3903 4.11407ZM15.8549 12.0021L9.60788 15.6001V8.40404L15.8549 12.0021Z" fill="white"/>
</svg>

<svg width="24" height="24" fill="none" xmlns="http://www.w3.org/2000/svg"><path fill-rule="evenodd" clip-rule="evenodd" d="M21.39 4.114a3.007 3.007 0 012.116 2.115c.514 1.878.494 5.793.494 5.793s0 3.894-.494 5.772a3.007 3.007 0 01-2.116 2.116c-1.878.494-9.39.494-9.39.494s-7.493 0-9.39-.514a3.008 3.008 0 01-2.116-2.115C0 15.916 0 12.002 0 12.002s0-3.895.494-5.773A3.068 3.068 0 012.61 4.094C4.488 3.6 12 3.6 12 3.6s7.513 0 9.391.514zm-5.535 7.888L9.608 15.6V8.404l6.247 3.598z" fill="#fff"/></svg>
